lib/assets/svg/button/he_add_to_google_wallet_add-wallet-badge.svg

<svg fill="none" height="55" viewBox="0 0 199 55" width="199" xmlns="http://www.w3.org/2000/svg" xmlns:xlink="http://www.w3.org/1999/xlink"><linearGradient id="a" gradientUnits="userSpaceOnUse" x1="37.2843" x2="18.7823" y1="34.0448" y2="55.7227"><stop offset="0" stop-color="#4285f4"/><stop offset="1" stop-color="#1b74e8"/></linearGradient><rect fill="#1f1f1f" height="54" rx="27" width="198" x=".5" y=".5"/><path d="m57 23.791h-36v-5.6454c0-3.0647 2.6422-5.6455 5.7798-5.6455h24.4404c3.1376 0 5.7798 2.5808 5.7798 5.6455z" fill="#34a853"/><path d="m57 29h-36v-6c0-3.2571 2.6422-6 5.7798-6h24.4404c3.1376 0 5.7798 2.7429 5.7798 6z" fill="#fbbc04"/><path d="m57 34h-36v-6c0-3.2571 2.6422-6 5.7798-6h24.4404c3.1376 0 5.7798 2.7429 5.7798 6z" fill="#ea4335"/><path d="m21 25.2409 22.8493 5.1616c2.6302.6452 5.5891 0 7.726-1.613l5.4247-3.8712v12.0974c0 3.0647-2.6301 5.4842-5.7534 5.4842h-24.4932c-3.1233 0-5.7534-2.4195-5.7534-5.4842z" fill="url(#a)"/><path d="m71.964 21.5 2.379-6.565h-4.706v-3.705h1.547v2.314h4.771v1.391l-2.353 6.565zm5.2406 0v-1.846c0-.7887.1734-1.4387.52-1.95.3554-.5113.8754-.8927 1.56-1.144l-2.249-2.938v-.078h1.742l2.756 3.718c.4594-.1733.7887-.4117.988-.715.1994-.312.299-.767.299-1.365v-1.638h1.547v1.664c0 .8753-.182 1.5427-.546 2.002-.364.4507-.858.7973-1.482 1.04l2.392 3.172v.078h-1.742l-2.873-3.939c-.5286.1647-.8883.416-1.079.754-.1906.3293-.286.7583-.286 1.287v1.898zm17.5796 0v-4.29c0-.5633-.0737-1.0097-.221-1.339-.1387-.338-.3684-.5763-.689-.715-.3207-.1473-.7584-.221-1.313-.221h-3.328v-1.391h3.328c1.326 0 2.2836.3077 2.873.923.5893.6153.884 1.5297.884 2.743v4.29zm-5.551 0v-4.394h1.547v4.394zm9.1467 0v-1.391h2.3791c.91 0 1.608-.2427 2.093-.728.494-.4853.741-1.1353.741-1.95 0-.5547-.108-1.0357-.325-1.443-.208-.416-.498-.7323-.871-.949-.364-.2253-.789-.338-1.274-.338-.329 0-.615.039-.858.117-.234.0693-.4291.1647-.5851.286-.1473.13-.26.2773-.338.442-.0693.1647-.104.3337-.104.507 0 .3553.1127.6327.338.832s.5501.299.9751.299h.403v1.287h-.442c-.9101 0-1.6034-.221-2.0801-.663s-.715-1.0227-.715-1.742c0-.4073.0823-.7757.247-1.105.1647-.338.3987-.6283.702-.871.2947-.2427.65-.429 1.066-.559.4251-.1387.8881-.208 1.3911-.208.797 0 1.491.182 2.08.546.598.3553 1.062.845 1.391 1.469.329.6153.494 1.313.494 2.093 0 .7713-.173 1.4647-.52 2.08s-.845 1.1007-1.495 1.456c-.641.3553-1.413.533-2.314.533zm11.9371.208c-.598 0-1.148-.1083-1.651-.325s-.94-.5157-1.313-.897c-.373-.39-.663-.8363-.871-1.339-.208-.5113-.312-1.0573-.312-1.638 0-.5547.1-1.0877.299-1.599.199-.52.494-.975.884-1.365.373-.3813.81-.6803 1.313-.897s1.053-.325 1.651-.325 1.148.1083 1.651.325c.511.2167.953.5157 1.326.897.381.3813.676.8277.884 1.339.208.5027.312 1.0443.312 1.625s-.104 1.1267-.312 1.638c-.208.5027-.503.949-.884 1.339-.373.3813-.815.6803-1.326.897-.503.2167-1.053.325-1.651.325zm0-1.391c.494 0 .94-.117 1.339-.351.407-.2427.728-.5763.962-1.001.243-.4247.364-.91.364-1.456s-.121-1.027-.364-1.443c-.234-.4247-.555-.754-.962-.988-.399-.2427-.845-.364-1.339-.364-.373 0-.719.0693-1.04.208-.321.13-.602.3207-.845.572-.251.26-.442.5677-.572.923-.13.3467-.195.7107-.195 1.092 0 .546.117 1.0313.351 1.456.243.4247.563.7583.962 1.001.399.234.845.351 1.339.351zm5.654 1.183v-7.956h1.547v7.956zm9.066 0v-4.29c0-.5633-.074-1.0097-.221-1.339-.139-.338-.368-.5763-.689-.715-.321-.1473-.758-.221-1.313-.221h-3.328v-1.391h3.328c1.326 0 2.284.3077 2.873.923s.884 1.5297.884 2.743v4.29zm-5.551 0v-4.394h1.547v4.394z" fill="#fff"/><path d="m76.14 41.772c-.8727 0-1.6943-.1587-2.465-.476-.7593-.3173-1.4337-.7593-2.023-1.326-.5893-.578-1.054-1.2523-1.394-2.023-.3287-.782-.493-1.6263-.493-2.533s.1643-1.7453.493-2.516c.34-.782.799-1.4563 1.377-2.023.5893-.578 1.2693-1.0257 2.04-1.343s1.5923-.476 2.465-.476c.9293 0 1.785.1643 2.567.493.7933.3287 1.4563.7877 1.989 1.377l-1.292 1.275c-.3967-.442-.8727-.782-1.428-1.02-.544-.238-1.156-.357-1.836-.357-.8047 0-1.547.1927-2.227.578-.68.374-1.2297.9067-1.649 1.598-.408.68-.612 1.4847-.612 2.414s.2097 1.7397.629 2.431c.4193.68.969 1.2127 1.649 1.598.68.374 1.4223.561 2.227.561.7367 0 1.4053-.136 2.006-.408.6007-.2833 1.0823-.68 1.445-1.19.374-.51.6007-1.122.68-1.836h-4.165v-1.649h5.916c.068.306.102.629.102.969v.017c0 1.1787-.2607 2.21-.782 3.094-.51.8727-1.2183 1.5527-2.125 2.04s-1.938.731-3.094.731zm11.4749 0c-.8954 0-1.683-.204-2.363-.612s-1.2127-.9577-1.598-1.649c-.3854-.6913-.578-1.4733-.578-2.346 0-.8613.1926-1.6377.578-2.329.3853-.7027.918-1.258 1.598-1.666s1.4676-.612 2.363-.612c.884 0 1.666.204 2.346.612s1.2126.9633 1.598 1.666c.3853.6913.578 1.4677.578 2.329 0 .8727-.1927 1.6547-.578 2.346-.3854.6913-.918 1.241-1.598 1.649s-1.462.612-2.346.612zm0-1.683c.476 0 .918-.1133 1.326-.34.408-.238.7366-.5723.986-1.003.2606-.442.391-.969.391-1.581s-.1304-1.1333-.391-1.564c-.2494-.442-.578-.7763-.986-1.003-.408-.238-.85-.357-1.326-.357s-.9237.119-1.343.357c-.408.2267-.7424.561-1.003 1.003-.2494.4307-.374.952-.374 1.564s.1246 1.139.374 1.581c.2606.4307.595.765 1.003 1.003.4193.2267.867.34 1.343.34zm10.2929 1.683c-.8953 0-1.683-.204-2.363-.612s-1.2126-.9577-1.598-1.649c-.3853-.6913-.578-1.4733-.578-2.346 0-.8613.1927-1.6377.578-2.329.3854-.7027.918-1.258 1.598-1.666s1.4677-.612 2.363-.612c.884 0 1.666.204 2.3462.612.68.408 1.213.9633 1.598 1.666.385.6913.578 1.4677.578 2.329 0 .8727-.193 1.6547-.578 2.346s-.918 1.241-1.598 1.649c-.6802.408-1.4622.612-2.3462.612zm0-1.683c.476 0 .918-.1133 1.326-.34.408-.238.7367-.5723.9862-1.003.261-.442.391-.969.391-1.581s-.13-1.1333-.391-1.564c-.2495-.442-.5782-.7763-.9862-1.003-.408-.238-.85-.357-1.326-.357s-.9236.119-1.343.357c-.408.2267-.7423.561-1.003 1.003-.2493.4307-.374.952-.374 1.564s.1247 1.139.374 1.581c.2607.4307.595.765 1.003 1.003.4194.2267.867.34 1.343.34zm10.1232 5.355c-.76 0-1.417-.1247-1.972-.374-.544-.238-.986-.5497-1.326-.935-.34-.374-.584-.7593-.731-1.156l1.7-.714c.181.4533.47.8217.867 1.105.408.2947.895.442 1.462.442.793 0 1.416-.238 1.87-.714.464-.476.697-1.1503.697-2.023v-.833h-.102c-.272.408-.652.7367-1.139.986-.476.238-1.02.357-1.632.357-.737 0-1.411-.187-2.023-.561s-1.105-.8953-1.479-1.564c-.374-.68-.561-1.4733-.561-2.38 0-.918.187-1.7113.561-2.38.374-.68.867-1.207 1.479-1.581s1.286-.561 2.023-.561c.612 0 1.156.1247 1.632.374.487.2493.867.578 1.139.986h.102v-1.088h1.751v8.211c0 .9407-.187 1.7397-.561 2.397-.363.6573-.867 1.156-1.513 1.496s-1.394.51-2.244.51zm.017-5.525c.453 0 .872-.1077 1.258-.323.385-.2267.697-.5497.935-.969.238-.4307.357-.9463.357-1.547 0-.6233-.119-1.1447-.357-1.564-.238-.4307-.55-.7537-.935-.969-.386-.2153-.805-.323-1.258-.323-.454 0-.879.1133-1.275.34-.386.2153-.697.5327-.935.952s-.357.9407-.357 1.564c0 .612.119 1.1333.357 1.564.238.4193.549.7367.935.952.396.2153.821.323 1.275.323zm6.466 1.581v-12.172h1.836v12.172zm7.878.272c-.85 0-1.609-.1983-2.278-.595-.668-.3967-1.195-.9407-1.581-1.632-.374-.6913-.561-1.479-.561-2.363 0-.8273.182-1.5923.544-2.295.363-.7027.867-1.2637 1.513-1.683.658-.4307 1.411-.646 2.261-.646.896 0 1.655.1927 2.278.578.635.3853 1.117.9123 1.445 1.581.329.6687.493 1.4223.493 2.261 0 .1247-.005.238-.017.34 0 .102-.005.1813-.017.238h-6.698c.091.8613.391 1.5073.901 1.938.522.4307 1.111.646 1.768.646.59 0 1.077-.1303 1.462-.391.386-.272.692-.6063.918-1.003l1.513.731c-.374.68-.884 1.2353-1.53 1.666-.646.4193-1.45.629-2.414.629zm-.085-7.65c-.612 0-1.133.187-1.564.561-.43.374-.719.8727-.867 1.496h4.811c-.022-.2947-.119-.6007-.289-.918s-.43-.5837-.782-.799c-.34-.2267-.776-.34-1.309-.34zm11.672 7.378-3.264-12.172h2.074l1.938 7.905.204 1.054h.102l.255-1.054 2.448-7.905h1.87l2.346 7.905.255 1.037h.102l.204-1.037 1.938-7.905h2.057l-3.213 12.172h-1.972l-2.329-8.075-.272-1.139h-.102l-.289 1.139-2.431 8.075zm15.943.272c-.623 0-1.179-.119-1.666-.357-.487-.2493-.867-.595-1.139-1.037s-.408-.9463-.408-1.513c0-.612.159-1.1333.476-1.564.329-.442.765-.7763 1.309-1.003s1.145-.34 1.802-.34c.544 0 1.02.051 1.428.153.419.102.737.2097.952.323v-.459c0-.5667-.204-1.02-.612-1.36s-.935-.51-1.581-.51c-.442 0-.861.102-1.258.306-.397.1927-.714.459-.952.799l-1.258-.969c.374-.5213.867-.9293 1.479-1.224.623-.306 1.303-.459 2.04-.459 1.258 0 2.227.3117 2.907.935.68.612 1.02 1.4733 1.02 2.584v5.423h-1.785v-1.071h-.102c-.227.3513-.567.663-1.02.935s-.997.408-1.632.408zm.323-1.496c.476 0 .895-.1133 1.258-.34s.646-.5213.85-.884c.215-.374.323-.7763.323-1.207-.261-.1473-.567-.2663-.918-.357-.351-.102-.725-.153-1.122-.153-.748 0-1.281.153-1.598.459-.317.2947-.476.6573-.476 1.088 0 .408.153.7423.459 1.003s.714.391 1.224.391zm6.254 1.224v-12.172h1.836v12.172zm4.018 0v-12.172h1.836v12.172zm7.878.272c-.85 0-1.609-.1983-2.278-.595-.668-.3967-1.195-.9407-1.581-1.632-.374-.6913-.561-1.479-.561-2.363 0-.8273.182-1.5923.544-2.295.363-.7027.867-1.2637 1.513-1.683.658-.4307 1.411-.646 2.261-.646.896 0 1.655.1927 2.278.578.635.3853 1.117.9123 1.445 1.581.329.6687.493 1.4223.493 2.261 0 .1247-.005.238-.017.34 0 .102-.005.1813-.017.238h-6.698c.091.8613.391 1.5073.901 1.938.522.4307 1.111.646 1.768.646.59 0 1.077-.1303 1.462-.391.386-.272.692-.6063.918-1.003l1.513.731c-.374.68-.884 1.2353-1.53 1.666-.646.4193-1.45.629-2.414.629zm-.085-7.65c-.612 0-1.133.187-1.564.561-.43.374-.719.8727-.867 1.496h4.811c-.022-.2947-.119-.6007-.289-.918s-.43-.5837-.782-.799c-.34-.2267-.776-.34-1.309-.34zm6.572 4.862v-4.556h-1.513v-1.598h1.513v-2.448h1.836v2.448h2.125v1.598h-2.125v4.165c0 .4307.085.7593.255.986.181.2267.481.34.901.34.215 0 .396-.0283.544-.085.158-.0567.317-.136.476-.238v1.785c-.193.0793-.397.1417-.612.187-.216.0453-.471.068-.765.068-.805 0-1.445-.2323-1.921-.697-.476-.476-.714-1.1277-.714-1.955z" fill="#fff"/><rect height="54" rx="27" stroke="#747775" width="198" x=".5" y=".5"/></svg>

<svg width="199" height="55" viewBox="0 0 199 55" fill="none" xmlns="http://www.w3.org/2000/svg">
<rect x="0.5" y="0.5" width="198" height="54" rx="27" fill="#1F1F1F"/>
<path d="M57 23.791H21V18.1456C21 15.0809 23.6422 12.5001 26.7798 12.5001H51.2202C54.3578 12.5001 57 15.0809 57 18.1456V23.791Z" fill="#34A853"/>
<path d="M57 29H21V23C21 19.7429 23.6422 17 26.7798 17H51.2202C54.3578 17 57 19.7429 57 23V29Z" fill="#FBBC04"/>
<path d="M57 34H21V28C21 24.7429 23.6422 22 26.7798 22H51.2202C54.3578 22 57 24.7429 57 28V34Z" fill="#EA4335"/>
<path d="M21 25.2409L43.8493 30.4025C46.4795 31.0477 49.4384 30.4025 51.5753 28.7895L57 24.9183V37.0157C57 40.0804 54.3699 42.4999 51.2466 42.4999H26.7534C23.6301 42.4999 21 40.0804 21 37.0157V25.2409Z" fill="url(#paint0_linear_1819_24358)"/>
<path d="M71.964 21.5L74.343 14.935H69.637V11.23H71.184V13.544H75.955V14.935L73.602 21.5H71.964ZM77.2046 21.5V19.654C77.2046 18.8653 77.378 18.2153 77.7246 17.704C78.08 17.1927 78.6 16.8113 79.2846 16.56L77.0356 13.622V13.544H78.7776L81.5336 17.262C81.993 17.0887 82.3223 16.8503 82.5216 16.547C82.721 16.235 82.8206 15.78 82.8206 15.182V13.544H84.3676V15.208C84.3676 16.0833 84.1856 16.7507 83.8216 17.21C83.4576 17.6607 82.9636 18.0073 82.3396 18.25L84.7316 21.422V21.5H82.9896L80.1166 17.561C79.588 17.7257 79.2283 17.977 79.0376 18.315C78.847 18.6443 78.7516 19.0733 78.7516 19.602V21.5H77.2046ZM94.7842 21.5V17.21C94.7842 16.6467 94.7105 16.2003 94.5632 15.871C94.4245 15.533 94.1948 15.2947 93.8742 15.156C93.5535 15.0087 93.1158 14.935 92.5612 14.935H89.2332V13.544H92.5612C93.8872 13.544 94.8448 13.8517 95.4342 14.467C96.0235 15.0823 96.3182 15.9967 96.3182 17.21V21.5H94.7842ZM89.2332 21.5V17.106H90.7802V21.5H89.2332ZM98.3799 21.5V20.109H100.759C101.669 20.109 102.367 19.8663 102.852 19.381C103.346 18.8957 103.593 18.2457 103.593 17.431C103.593 16.8763 103.485 16.3953 103.268 15.988C103.06 15.572 102.77 15.2557 102.397 15.039C102.033 14.8137 101.608 14.701 101.123 14.701C100.794 14.701 100.508 14.74 100.265 14.818C100.031 14.8873 99.8359 14.9827 99.6799 15.104C99.5326 15.234 99.4199 15.3813 99.3419 15.546C99.2726 15.7107 99.2379 15.8797 99.2379 16.053C99.2379 16.4083 99.3506 16.6857 99.5759 16.885C99.8012 17.0843 100.126 17.184 100.551 17.184H100.954V18.471H100.512C99.6019 18.471 98.9086 18.25 98.4319 17.808C97.9552 17.366 97.7169 16.7853 97.7169 16.066C97.7169 15.6587 97.7992 15.2903 97.9639 14.961C98.1286 14.623 98.3626 14.3327 98.6659 14.09C98.9606 13.8473 99.3159 13.661 99.7319 13.531C100.157 13.3923 100.62 13.323 101.123 13.323C101.92 13.323 102.614 13.505 103.203 13.869C103.801 14.2243 104.265 14.714 104.594 15.338C104.923 15.9533 105.088 16.651 105.088 17.431C105.088 18.2023 104.915 18.8957 104.568 19.511C104.221 20.1263 103.723 20.6117 103.073 20.967C102.432 21.3223 101.66 21.5 100.759 21.5H98.3799ZM110.317 21.708C109.719 21.708 109.169 21.5997 108.666 21.383C108.163 21.1663 107.726 20.8673 107.353 20.486C106.98 20.096 106.69 19.6497 106.482 19.147C106.274 18.6357 106.17 18.0897 106.17 17.509C106.17 16.9543 106.27 16.4213 106.469 15.91C106.668 15.39 106.963 14.935 107.353 14.545C107.726 14.1637 108.163 13.8647 108.666 13.648C109.169 13.4313 109.719 13.323 110.317 13.323C110.915 13.323 111.465 13.4313 111.968 13.648C112.479 13.8647 112.921 14.1637 113.294 14.545C113.675 14.9263 113.97 15.3727 114.178 15.884C114.386 16.3867 114.49 16.9283 114.49 17.509C114.49 18.0897 114.386 18.6357 114.178 19.147C113.97 19.6497 113.675 20.096 113.294 20.486C112.921 20.8673 112.479 21.1663 111.968 21.383C111.465 21.5997 110.915 21.708 110.317 21.708ZM110.317 20.317C110.811 20.317 111.257 20.2 111.656 19.966C112.063 19.7233 112.384 19.3897 112.618 18.965C112.861 18.5403 112.982 18.055 112.982 17.509C112.982 16.963 112.861 16.482 112.618 16.066C112.384 15.6413 112.063 15.312 111.656 15.078C111.257 14.8353 110.811 14.714 110.317 14.714C109.944 14.714 109.598 14.7833 109.277 14.922C108.956 15.052 108.675 15.2427 108.432 15.494C108.181 15.754 107.99 16.0617 107.86 16.417C107.73 16.7637 107.665 17.1277 107.665 17.509C107.665 18.055 107.782 18.5403 108.016 18.965C108.259 19.3897 108.579 19.7233 108.978 19.966C109.377 20.2 109.823 20.317 110.317 20.317ZM115.971 21.5V13.544H117.518V21.5H115.971ZM125.037 21.5V17.21C125.037 16.6467 124.963 16.2003 124.816 15.871C124.677 15.533 124.448 15.2947 124.127 15.156C123.806 15.0087 123.369 14.935 122.814 14.935H119.486V13.544H122.814C124.14 13.544 125.098 13.8517 125.687 14.467C126.276 15.0823 126.571 15.9967 126.571 17.21V21.5H125.037ZM119.486 21.5V17.106H121.033V21.5H119.486Z" fill="white"/>
<path d="M76.14 41.772C75.2673 41.772 74.4457 41.6133 73.675 41.296C72.9157 40.9787 72.2413 40.5367 71.652 39.97C71.0627 39.392 70.598 38.7177 70.258 37.947C69.9293 37.165 69.765 36.3207 69.765 35.414C69.765 34.5073 69.9293 33.6687 70.258 32.898C70.598 32.116 71.057 31.4417 71.635 30.875C72.2243 30.297 72.9043 29.8493 73.675 29.532C74.4457 29.2147 75.2673 29.056 76.14 29.056C77.0693 29.056 77.925 29.2203 78.707 29.549C79.5003 29.8777 80.1633 30.3367 80.696 30.926L79.404 32.201C79.0073 31.759 78.5313 31.419 77.976 31.181C77.432 30.943 76.82 30.824 76.14 30.824C75.3353 30.824 74.593 31.0167 73.913 31.402C73.233 31.776 72.6833 32.3087 72.264 33C71.856 33.68 71.652 34.4847 71.652 35.414C71.652 36.3433 71.8617 37.1537 72.281 37.845C72.7003 38.525 73.25 39.0577 73.93 39.443C74.61 39.817 75.3523 40.004 76.157 40.004C76.8937 40.004 77.5623 39.868 78.163 39.596C78.7637 39.3127 79.2453 38.916 79.608 38.406C79.982 37.896 80.2087 37.284 80.288 36.57H76.123V34.921H82.039C82.107 35.227 82.141 35.55 82.141 35.89V35.907C82.141 37.0857 81.8803 38.117 81.359 39.001C80.849 39.8737 80.1407 40.5537 79.234 41.041C78.3273 41.5283 77.296 41.772 76.14 41.772ZM87.6149 41.772C86.7195 41.772 85.9319 41.568 85.2519 41.16C84.5719 40.752 84.0392 40.2023 83.6539 39.511C83.2685 38.8197 83.0759 38.0377 83.0759 37.165C83.0759 36.3037 83.2685 35.5273 83.6539 34.836C84.0392 34.1333 84.5719 33.578 85.2519 33.17C85.9319 32.762 86.7195 32.558 87.6149 32.558C88.4989 32.558 89.2809 32.762 89.9609 33.17C90.6409 33.578 91.1735 34.1333 91.5589 34.836C91.9442 35.5273 92.1369 36.3037 92.1369 37.165C92.1369 38.0377 91.9442 38.8197 91.5589 39.511C91.1735 40.2023 90.6409 40.752 89.9609 41.16C89.2809 41.568 88.4989 41.772 87.6149 41.772ZM87.6149 40.089C88.0909 40.089 88.5329 39.9757 88.9409 39.749C89.3489 39.511 89.6775 39.1767 89.9269 38.746C90.1875 38.304 90.3179 37.777 90.3179 37.165C90.3179 36.553 90.1875 36.0317 89.9269 35.601C89.6775 35.159 89.3489 34.8247 88.9409 34.598C88.5329 34.36 88.0909 34.241 87.6149 34.241C87.1389 34.241 86.6912 34.36 86.2719 34.598C85.8639 34.8247 85.5295 35.159 85.2689 35.601C85.0195 36.0317 84.8949 36.553 84.8949 37.165C84.8949 37.777 85.0195 38.304 85.2689 38.746C85.5295 39.1767 85.8639 39.511 86.2719 39.749C86.6912 39.9757 87.1389 40.089 87.6149 40.089ZM97.9078 41.772C97.0125 41.772 96.2248 41.568 95.5448 41.16C94.8648 40.752 94.3322 40.2023 93.9468 39.511C93.5615 38.8197 93.3688 38.0377 93.3688 37.165C93.3688 36.3037 93.5615 35.5273 93.9468 34.836C94.3322 34.1333 94.8648 33.578 95.5448 33.17C96.2248 32.762 97.0125 32.558 97.9078 32.558C98.7918 32.558 99.5738 32.762 100.254 33.17C100.934 33.578 101.467 34.1333 101.852 34.836C102.237 35.5273 102.43 36.3037 102.43 37.165C102.43 38.0377 102.237 38.8197 101.852 39.511C101.467 40.2023 100.934 40.752 100.254 41.16C99.5738 41.568 98.7918 41.772 97.9078 41.772ZM97.9078 40.089C98.3838 40.089 98.8258 39.9757 99.2338 39.749C99.6418 39.511 99.9705 39.1767 100.22 38.746C100.481 38.304 100.611 37.777 100.611 37.165C100.611 36.553 100.481 36.0317 100.22 35.601C99.9705 35.159 99.6418 34.8247 99.2338 34.598C98.8258 34.36 98.3838 34.241 97.9078 34.241C97.4318 34.241 96.9842 34.36 96.5648 34.598C96.1568 34.8247 95.8225 35.159 95.5618 35.601C95.3125 36.0317 95.1878 36.553 95.1878 37.165C95.1878 37.777 95.3125 38.304 95.5618 38.746C95.8225 39.1767 96.1568 39.511 96.5648 39.749C96.9842 39.9757 97.4318 40.089 97.9078 40.089ZM108.031 45.444C107.271 45.444 106.614 45.3193 106.059 45.07C105.515 44.832 105.073 44.5203 104.733 44.135C104.393 43.761 104.149 43.3757 104.002 42.979L105.702 42.265C105.883 42.7183 106.172 43.0867 106.569 43.37C106.977 43.6647 107.464 43.812 108.031 43.812C108.824 43.812 109.447 43.574 109.901 43.098C110.365 42.622 110.598 41.9477 110.598 41.075V40.242H110.496C110.224 40.65 109.844 40.9787 109.357 41.228C108.881 41.466 108.337 41.585 107.725 41.585C106.988 41.585 106.314 41.398 105.702 41.024C105.09 40.65 104.597 40.1287 104.223 39.46C103.849 38.78 103.662 37.9867 103.662 37.08C103.662 36.162 103.849 35.3687 104.223 34.7C104.597 34.02 105.09 33.493 105.702 33.119C106.314 32.745 106.988 32.558 107.725 32.558C108.337 32.558 108.881 32.6827 109.357 32.932C109.844 33.1813 110.224 33.51 110.496 33.918H110.598V32.83H112.349V41.041C112.349 41.9817 112.162 42.7807 111.788 43.438C111.425 44.0953 110.921 44.594 110.275 44.934C109.629 45.274 108.881 45.444 108.031 45.444ZM108.048 39.919C108.501 39.919 108.92 39.8113 109.306 39.596C109.691 39.3693 110.003 39.0463 110.241 38.627C110.479 38.1963 110.598 37.6807 110.598 37.08C110.598 36.4567 110.479 35.9353 110.241 35.516C110.003 35.0853 109.691 34.7623 109.306 34.547C108.92 34.3317 108.501 34.224 108.048 34.224C107.594 34.224 107.169 34.3373 106.773 34.564C106.387 34.7793 106.076 35.0967 105.838 35.516C105.6 35.9353 105.481 36.4567 105.481 37.08C105.481 37.692 105.6 38.2133 105.838 38.644C106.076 39.0633 106.387 39.3807 106.773 39.596C107.169 39.8113 107.594 39.919 108.048 39.919ZM114.514 41.5V29.328H116.35V41.5H114.514ZM122.392 41.772C121.542 41.772 120.783 41.5737 120.114 41.177C119.446 40.7803 118.919 40.2363 118.533 39.545C118.159 38.8537 117.972 38.066 117.972 37.182C117.972 36.3547 118.154 35.5897 118.516 34.887C118.879 34.1843 119.383 33.6233 120.029 33.204C120.687 32.7733 121.44 32.558 122.29 32.558C123.186 32.558 123.945 32.7507 124.568 33.136C125.203 33.5213 125.685 34.0483 126.013 34.717C126.342 35.3857 126.506 36.1393 126.506 36.978C126.506 37.1027 126.501 37.216 126.489 37.318C126.489 37.42 126.484 37.4993 126.472 37.556H119.774C119.865 38.4173 120.165 39.0633 120.675 39.494C121.197 39.9247 121.786 40.14 122.443 40.14C123.033 40.14 123.52 40.0097 123.905 39.749C124.291 39.477 124.597 39.1427 124.823 38.746L126.336 39.477C125.962 40.157 125.452 40.7123 124.806 41.143C124.16 41.5623 123.356 41.772 122.392 41.772ZM122.307 34.122C121.695 34.122 121.174 34.309 120.743 34.683C120.313 35.057 120.024 35.5557 119.876 36.179H124.687C124.665 35.8843 124.568 35.5783 124.398 35.261C124.228 34.9437 123.968 34.6773 123.616 34.462C123.276 34.2353 122.84 34.122 122.307 34.122ZM133.979 41.5L130.715 29.328H132.789L134.727 37.233L134.931 38.287H135.033L135.288 37.233L137.736 29.328H139.606L141.952 37.233L142.207 38.27H142.309L142.513 37.233L144.451 29.328H146.508L143.295 41.5H141.323L138.994 33.425L138.722 32.286H138.62L138.331 33.425L135.9 41.5H133.979ZM149.922 41.772C149.299 41.772 148.743 41.653 148.256 41.415C147.769 41.1657 147.389 40.82 147.117 40.378C146.845 39.936 146.709 39.4317 146.709 38.865C146.709 38.253 146.868 37.7317 147.185 37.301C147.514 36.859 147.95 36.5247 148.494 36.298C149.038 36.0713 149.639 35.958 150.296 35.958C150.84 35.958 151.316 36.009 151.724 36.111C152.143 36.213 152.461 36.3207 152.676 36.434V35.975C152.676 35.4083 152.472 34.955 152.064 34.615C151.656 34.275 151.129 34.105 150.483 34.105C150.041 34.105 149.622 34.207 149.225 34.411C148.828 34.6037 148.511 34.87 148.273 35.21L147.015 34.241C147.389 33.7197 147.882 33.3117 148.494 33.017C149.117 32.711 149.797 32.558 150.534 32.558C151.792 32.558 152.761 32.8697 153.441 33.493C154.121 34.105 154.461 34.9663 154.461 36.077V41.5H152.676V40.429H152.574C152.347 40.7803 152.007 41.092 151.554 41.364C151.101 41.636 150.557 41.772 149.922 41.772ZM150.245 40.276C150.721 40.276 151.14 40.1627 151.503 39.936C151.866 39.7093 152.149 39.4147 152.353 39.052C152.568 38.678 152.676 38.2757 152.676 37.845C152.415 37.6977 152.109 37.5787 151.758 37.488C151.407 37.386 151.033 37.335 150.636 37.335C149.888 37.335 149.355 37.488 149.038 37.794C148.721 38.0887 148.562 38.4513 148.562 38.882C148.562 39.29 148.715 39.6243 149.021 39.885C149.327 40.1457 149.735 40.276 150.245 40.276ZM156.499 41.5V29.328H158.335V41.5H156.499ZM160.517 41.5V29.328H162.353V41.5H160.517ZM168.395 41.772C167.545 41.772 166.786 41.5737 166.117 41.177C165.449 40.7803 164.922 40.2363 164.536 39.545C164.162 38.8537 163.975 38.066 163.975 37.182C163.975 36.3547 164.157 35.5897 164.519 34.887C164.882 34.1843 165.386 33.6233 166.032 33.204C166.69 32.7733 167.443 32.558 168.293 32.558C169.189 32.558 169.948 32.7507 170.571 33.136C171.206 33.5213 171.688 34.0483 172.016 34.717C172.345 35.3857 172.509 36.1393 172.509 36.978C172.509 37.1027 172.504 37.216 172.492 37.318C172.492 37.42 172.487 37.4993 172.475 37.556H165.777C165.868 38.4173 166.168 39.0633 166.678 39.494C167.2 39.9247 167.789 40.14 168.446 40.14C169.036 40.14 169.523 40.0097 169.908 39.749C170.294 39.477 170.6 39.1427 170.826 38.746L172.339 39.477C171.965 40.157 171.455 40.7123 170.809 41.143C170.163 41.5623 169.359 41.772 168.395 41.772ZM168.31 34.122C167.698 34.122 167.177 34.309 166.746 34.683C166.316 35.057 166.027 35.5557 165.879 36.179H170.69C170.668 35.8843 170.571 35.5783 170.401 35.261C170.231 34.9437 169.971 34.6773 169.619 34.462C169.279 34.2353 168.843 34.122 168.31 34.122ZM174.882 38.984V34.428H173.369V32.83H174.882V30.382H176.718V32.83H178.843V34.428H176.718V38.593C176.718 39.0237 176.803 39.3523 176.973 39.579C177.154 39.8057 177.454 39.919 177.874 39.919C178.089 39.919 178.27 39.8907 178.418 39.834C178.576 39.7773 178.735 39.698 178.894 39.596V41.381C178.701 41.4603 178.497 41.5227 178.282 41.568C178.066 41.6133 177.811 41.636 177.517 41.636C176.712 41.636 176.072 41.4037 175.596 40.939C175.12 40.463 174.882 39.8113 174.882 38.984Z" fill="white"/>
<rect x="0.5" y="0.5" width="198" height="54" rx="27" stroke="#747775"/>
<defs>
<linearGradient id="paint0_linear_1819_24358" x1="37.2843" y1="34.0448" x2="18.7823" y2="55.7227" gradientUnits="userSpaceOnUse">
<stop stop-color="#4285F4"/>
<stop offset="1" stop-color="#1B74E8"/>
</linearGradient>
</defs>
</svg>
